X: 7038
T: Chinese Breakdown
R: reel
M: 4/4
K: Dmajor
A2|d2 d2 B2 A2|F2 F4 A2|d2 d2 B2 A2|E6 A2|
c2 c2 B2 A2|c2 c4 B2|A3A B2 A2|F6 A2|
d2 d2 B2 A2|F2 F4 E2|D2 D2 E2 F2|G6 d2|
e3f g2 e2|c2 c4 B2|A2 A2 B2 c2|d4 e4||
f2 af e2 d2|f2 f4 f2|f2 af e2 d2|c6 e2|
a2 a4 a2|g2 g4 e2|c3d c2 B2|A6 e2|
f2 af e2 d2|f2 f4 e2|d2 d2 c2 =c2|B6 d2|
e3f g2 e2|^c2 c4 B2|A2 A2 B2 c2|d6||

